src/assets/logo.svg

<svg width="40" height="40" viewBox="0 0 40 40" fill="none" xmlns="http://www.w3.org/2000/svg">
<circle cx="20" cy="20" r="20" fill="#242C3D"/>
<path d="M7.12785 18.0646L9.41596 24.1551C10.0667 24.267 10.4673 24.4197 10.4673 24.5879L10.4673 24.5899C10.4839 24.6638 10.4826 24.7447 10.4633 24.8326L10.4673 24.8327L10.4545 24.8685C10.4368 24.9342 10.4096 25.0036 10.3727 25.0769C9.7664 26.5085 8.42565 27.5186 6.7756 27.5186C5.1498 27.5186 3.76186 26.538 3.13517 25.1398C3.08147 25.0391 3.04386 24.9461 3.02217 24.8606C3.01891 24.8514 3.01556 24.8421 3.01223 24.8327L3.01557 24.8325C2.99857 24.7541 2.99549 24.6823 3.00633 24.6171L3.01223 24.5879L3.01291 24.5759C3.03212 24.406 3.46032 24.2527 4.14023 24.1423L6.42335 18.0646C6.53324 17.7698 7.01721 17.7698 7.12785 18.0646ZM19.1979 18.0638L21.4855 24.1529C22.1059 24.2586 22.5021 24.401 22.5456 24.5588L22.5415 24.5506L22.5509 24.5705C22.5825 24.6459 22.5858 24.733 22.5611 24.8318L22.5612 24.8319C22.548 24.8835 22.5277 24.9375 22.4999 24.9946C21.9092 26.4699 20.5269 27.5178 18.8457 27.5178C17.1826 27.5178 15.7684 26.4917 15.1633 25.0422C15.1273 24.9713 15.0986 24.9031 15.084 24.8392L15.0826 24.8327C15.0825 24.8324 15.0824 24.8322 15.0823 24.8319L15.0824 24.8318L15.0795 24.8154C15.0708 24.7577 15.0745 24.6855 15.0906 24.5988L15.0954 24.5746L15.096 24.5705L15.0976 24.5626C15.1367 24.3991 15.5547 24.2518 16.2093 24.1445L18.4934 18.0638C18.6033 17.769 19.0873 17.769 19.1979 18.0638ZM15.0978 24.5626L15.096 24.5705H15.0962L15.0978 24.5626ZM6.7756 19.2688L4.98339 24.0394C5.50672 23.9927 6.10469 23.9662 6.73976 23.9662L6.81141 23.9663C7.45 23.9683 8.0493 23.9971 8.57062 24.0462L6.7756 19.2688ZM18.8457 19.2688L17.0529 24.0405C17.5793 23.9931 18.1818 23.9662 18.8221 23.9662L18.8937 23.9663C19.5271 23.9683 20.1219 23.9966 20.6402 24.045L18.8457 19.2688ZM12.8635 11C12.8635 11 13.7562 13.7955 13.7562 14.2907C13.7562 14.6316 13.559 14.9197 13.2783 15.0708C13.5093 15.1457 13.7126 15.2772 13.8714 15.4534C14.2259 15.1449 14.7482 14.8584 15.4979 14.8584C16.3552 14.8584 17.0921 15.2326 17.7424 15.563C17.9494 15.668 18.1503 15.7686 18.3362 15.8472C18.4747 15.7006 18.6682 15.6068 18.8849 15.6068C19.3049 15.6068 19.6451 15.9485 19.6451 16.3703C19.6451 16.7922 19.3049 17.1338 18.8849 17.1338C18.544 17.1338 18.2662 16.9048 18.1699 16.5941C17.9208 16.4988 17.6656 16.3703 17.4029 16.2373C16.8279 15.9455 16.1753 15.6144 15.4979 15.6144C14.8468 15.6144 14.4404 15.9175 14.2086 16.1738C14.2176 16.2388 14.2281 16.3031 14.2281 16.3703C14.2281 17.127 13.617 17.7409 12.8635 17.7409C12.1101 17.7409 11.499 17.127 11.499 16.3703C11.499 16.3031 11.5095 16.238 11.5185 16.173C11.2859 15.916 10.8795 15.6144 10.2292 15.6144C9.55179 15.6144 8.89922 15.9462 8.32342 16.238C8.06149 16.3711 7.80634 16.4996 7.5572 16.5949C7.46086 16.9055 7.18312 17.1346 6.84216 17.1346C6.42217 17.1346 6.08196 16.7922 6.08196 16.3703C6.08196 15.9485 6.42217 15.6068 6.84216 15.6068C7.05893 15.6068 7.25237 15.7013 7.39086 15.8472C7.57677 15.7693 7.77698 15.6688 7.98397 15.563C8.63428 15.2326 9.3719 14.8584 10.2292 14.8584C10.9789 14.8584 11.5012 15.1449 11.8557 15.4534C12.0145 15.2772 12.2178 15.1449 12.4488 15.0708C12.1681 14.9197 11.9709 14.6324 11.9709 14.2907C11.9709 13.7955 12.8635 11 12.8635 11Z" fill="url(#paint0_linear)"/>
<path d="M22.6841 9.23237C22.6841 9.23237 21.6864 9.31796 21.0253 9.6745C21.0253 9.6745 23.6545 9.66033 24.8781 10.6864C24.8781 10.6864 21.9024 9.77375 18.434 12.0401C18.434 12.0401 23.9503 10.9852 26.5655 13.2231C26.5655 13.2231 25.7216 11.6641 23.9467 11.3286C23.9467 11.3286 25.9661 11.2482 26.6577 11.5838C26.6577 11.5838 26.0604 10.2994 25.3833 9.99324V9.07766C25.3833 8.89225 24.372 7.94939 22.6841 7.79028V9.23237Z" fill="url(#paint1_linear)"/>
<path d="M22.2348 13.3263C22.2348 13.3263 22.6603 13.6968 22.8405 14.0391C22.8405 14.0391 22.4515 14.4228 22.0797 14.6118C22.0797 14.6118 23.206 14.9658 23.5025 15.3846C22.9021 15.1961 21.8766 15.2667 21.6297 15.7757C22.3152 15.7019 22.735 15.8787 22.8232 16.1409C22.8232 16.1409 22.6603 16.3753 22.1612 16.4795C21.6297 16.5905 21.4939 16.811 21.4939 17.1191C21.4939 17.4271 21.8975 17.7087 22.6306 17.6859C23.3626 17.6625 25.3592 17.3611 25.5101 13.5906C25.3592 13.2361 23.5354 12.5121 22.2301 12.5201L22.2348 13.3263Z" fill="white"/>
<path d="M25.7576 17.4991C26.6539 16.1069 27.1443 14.8938 27.2288 13.8599C28.5557 15.3317 28.476 17.0549 28.2505 18.3737C28.0984 17.9493 27.9023 17.5128 27.6621 17.0641C27.8208 19.0975 27.2177 20.1983 25.8528 20.3667C25.6932 19.4274 25.6614 18.4716 25.7576 17.4991Z" fill="white"/>
<path d="M10.151 5.87061C9.90196 6.25301 9.53688 7.31627 9.05578 9.06037C7.90731 10.3722 6.78544 12.2029 5.69015 14.5527C5.15927 14.7318 4.5959 14.9791 4 15.2949C5.55864 12.3608 7.08159 10.1663 8.56881 8.71172C8.89346 7.63471 9.42086 6.68767 10.151 5.87061Z" fill="white"/>
<path d="M13.1118 8.87744L9.47803 10.5887C10.5134 10.6061 11.3357 10.4181 11.9449 10.025C12.5541 9.63176 12.9431 9.24926 13.1118 8.87744Z" fill="white"/>
<path d="M11.771 8.25341C11.7504 7.50553 11.6529 7.08519 11.4783 6.99237C11.2843 6.90587 11.1715 6.71957 11.2843 6.37939C11.3539 6.16317 11.3329 5.92246 11.2214 5.65727L12.2071 5L13.3164 5.69798C13.3553 5.94426 13.2747 6.1714 13.0746 6.37939C13.3164 6.64055 13.3164 6.97761 13.0363 7.36693C13.0441 7.46338 13.0495 7.55794 13.0526 7.65062C13.0572 7.79107 13.0517 7.992 13.0363 8.25341H11.771Z" fill="white"/>
<path d="M24.7396 18.9385C24.5836 21.8077 25.1886 23.4382 26.5546 23.83C28.6036 24.4178 32.2465 24.4959 32.0134 28.9465C32.1985 29.5357 32.3677 30.0957 32.521 30.6264C31.9205 31.2688 31.2689 31.8619 30.5731 32.3992C29.8919 30.7367 28.8572 29.6913 27.6602 28.9465C22.9427 25.9793 21.9691 22.6433 24.7396 18.9385Z" fill="white"/>
<path d="M11.4723 28.8369C14.2258 35.7367 18.6336 31.3157 22.0386 32.9319C23.5956 33.6709 24.4448 35.0276 24.5865 37.0018C23.2591 37.3103 21.8759 37.4732 20.4547 37.4732C17.6991 37.4732 15.0863 36.8608 12.745 35.7647C12.7363 33.6874 12.312 31.3783 11.4723 28.8369Z" fill="white"/>
<path d="M16.6956 10.1793C17.4099 9.98236 17.9937 9.53759 18.4469 8.84503C18.4182 9.25736 18.3147 9.61228 18.1365 9.9098C20.2009 9.53916 21.8031 8.29061 22.943 6.16417C20.8411 5.02341 18.6745 5.80161 17.5131 7.22074C16.7389 8.16683 16.4664 9.15303 16.6956 10.1793Z" fill="white"/>
<defs>
<linearGradient id="paint0_linear" x1="31.7775" y1="2.62017" x2="4.29311" y2="26.8391" gradientUnits="userSpaceOnUse">
<stop stop-color="#FFAD61"/>
<stop offset="1" stop-color="#FF7676"/>
</linearGradient>
<linearGradient id="paint1_linear" x1="30.5223" y1="5.03421" x2="21.4737" y2="15.2179" gradientUnits="userSpaceOnUse">
<stop stop-color="#FFAD61"/>
<stop offset="1" stop-color="#FF7676"/>
</linearGradient>
</defs>
</svg>

<svg width="40" height="40" fill="none" xmlns="http://www.w3.org/2000/svg"><circle cx="20" cy="20" r="20" fill="#242C3D"/><path d="M7.128 18.065l2.288 6.09c.65.112 1.051.265 1.051.433v.002a.556.556 0 01-.004.243h.004l-.013.036a1.107 1.107 0 01-.081.208c-.607 1.431-1.947 2.442-3.597 2.442-1.626 0-3.014-.981-3.64-2.38a1.26 1.26 0 01-.114-.278l-.01-.028h.004a.572.572 0 01-.01-.216l.006-.03v-.011c.02-.17.448-.323 1.128-.434l2.283-6.077c.11-.295.594-.295.705 0zm12.07-.001l2.287 6.089c.62.106 1.017.248 1.06.406l-.004-.008.01.02a.408.408 0 01.01.26.86.86 0 01-.061.164c-.59 1.475-1.973 2.523-3.654 2.523-1.663 0-3.078-1.026-3.683-2.476a.912.912 0 01-.079-.203l-.001-.006v-.001l-.004-.017a.67.67 0 01.012-.216l.004-.024.001-.005.002-.007c.039-.164.457-.311 1.111-.418l2.284-6.081c.11-.295.594-.295.705 0zm-4.1 6.499l-.002.008.002-.008zm-8.322-5.294l-1.793 4.77a20.04 20.04 0 011.757-.073h.071a19.7 19.7 0 011.76.08L6.776 19.27zm12.07 0l-1.793 4.772a20.012 20.012 0 011.77-.075h.07c.634.002 1.229.03 1.747.079l-1.794-4.776zM12.864 11s.892 2.796.892 3.29c0 .342-.197.63-.478.78.231.076.435.207.593.383a2.4 2.4 0 011.627-.595c.857 0 1.594.375 2.244.705.207.105.408.206.594.284a.753.753 0 01.549-.24c.42 0 .76.341.76.763s-.34.764-.76.764a.75.75 0 01-.715-.54 8.385 8.385 0 01-.767-.357c-.575-.291-1.228-.623-1.905-.623a1.68 1.68 0 00-1.29.56c.01.065.02.13.02.196 0 .757-.611 1.37-1.364 1.37a1.368 1.368 0 01-1.365-1.37c0-.067.01-.132.02-.197a1.68 1.68 0 00-1.29-.559c-.677 0-1.33.332-1.906.624a8.251 8.251 0 01-.766.357.75.75 0 01-.715.54.762.762 0 01-.76-.765.756.756 0 011.309-.523c.186-.078.386-.178.593-.284.65-.33 1.388-.705 2.245-.705a2.4 2.4 0 011.627.595c.159-.176.362-.308.593-.382a.887.887 0 01-.478-.78c0-.495.893-3.291.893-3.291z" fill="url(#paint0_linear)"/><path d="M22.684 9.232s-.998.086-1.659.443c0 0 2.63-.015 3.853 1.011 0 0-2.976-.912-6.444 1.354 0 0 5.516-1.055 8.131 1.183 0 0-.843-1.559-2.618-1.894 0 0 2.02-.08 2.71.255 0 0-.597-1.285-1.274-1.59v-.916c0-.186-1.011-1.129-2.699-1.288v1.442z" fill="url(#paint1_linear)"/><path d="M22.235 13.326s.425.37.605.713c0 0-.389.384-.76.573 0 0 1.126.354 1.423.773-.6-.189-1.626-.118-1.873.39.685-.073 1.105.104 1.193.366 0 0-.163.234-.662.339-.531.11-.667.331-.667.64 0 .307.404.589 1.137.566.732-.023 2.728-.325 2.88-4.095-.152-.355-1.976-1.079-3.28-1.07l.004.805zM25.758 17.5c.896-1.393 1.386-2.606 1.47-3.64 1.328 1.472 1.248 3.195 1.022 4.514a9.764 9.764 0 00-.588-1.31c.159 2.034-.444 3.134-1.81 3.303-.159-.94-.19-1.895-.094-2.868zM10.151 5.87c-.249.383-.614 1.446-1.095 3.19-1.149 1.312-2.27 3.143-3.366 5.493-.53.179-1.094.426-1.69.742 1.559-2.934 3.082-5.129 4.569-6.583A7.422 7.422 0 0110.15 5.87zM13.112 8.877L9.478 10.59c1.035.017 1.858-.17 2.467-.564.61-.393.998-.776 1.167-1.148zM11.771 8.253c-.02-.747-.118-1.168-.293-1.26-.194-.087-.306-.273-.194-.614.07-.216.049-.457-.063-.722L12.207 5l1.11.698c.038.246-.042.473-.242.681.241.262.241.599-.039.988.008.096.014.19.017.284.004.14-.001.341-.017.602h-1.265z" fill="#fff"/><path d="M24.74 18.939c-.156 2.869.449 4.5 1.815 4.891 2.049.588 5.691.666 5.458 5.117.186.589.355 1.149.508 1.68-.6.642-1.252 1.235-1.948 1.772-.681-1.662-1.716-2.708-2.913-3.453-4.717-2.967-5.69-6.303-2.92-10.008zM11.472 28.837c2.754 6.9 7.162 2.479 10.567 4.095 1.557.739 2.406 2.096 2.547 4.07-1.327.308-2.71.471-4.131.471-2.756 0-5.369-.612-7.71-1.708-.009-2.078-.433-4.387-1.273-6.928zM16.696 10.18c.714-.198 1.298-.642 1.75-1.335a2.362 2.362 0 01-.31 1.065c2.065-.37 3.667-1.62 4.807-3.746-2.102-1.14-4.269-.362-5.43 1.057-.774.946-1.047 1.932-.817 2.958z" fill="#fff"/><defs><linearGradient id="paint0_linear" x1="31.777" y1="2.62" x2="4.293" y2="26.839" gradientUnits="userSpaceOnUse"><stop stop-color="#FFAD61"/><stop offset="1" stop-color="#FF7676"/></linearGradient><linearGradient id="paint1_linear" x1="30.522" y1="5.034" x2="21.474" y2="15.218" gradientUnits="userSpaceOnUse"><stop stop-color="#FFAD61"/><stop offset="1" stop-color="#FF7676"/></linearGradient></defs></svg>
